X: 177
T: la Tonva
%R: reel
M: 2/4
L: 1/16
Z: 2014 John Chambers <jc:trillian.mit.edu>
B: Chas & Sam Thompson "Twenty Four Country Dances for the Year 1772", London 1772, p.89
F: http://folkopedia.efdss.org/images/8/89/Thompson_24_1772.PDF
K: G
|:\
gfga g2d2 | edef e2B2 | c2A2G2F2 | GFGA G2G2 |\
gfga g2d2 | edef e2B2 | c2A2G2F2 | G4 G4 :|
|:\
B2dB B2G2 | [e4c4] [e4c4] | B2dB B2G2 [g4B4D4] [g4B4D4] |\
B2dB B2G2 | [e4c4] [e4c4] | c2A2G2F2 | G4 G4 :|
|:\
B2B2A2B2 | c2c2B2c2 | d2d2c2B2 | A4 A4 |\
B2B2A2B2 | c2c2B2e2 | d2c2B2A2 | G4 G4 :|
|:\
D2DF E2EG | F2FA G2D2 | E2EG F2FA | G4 G4 |\
D2DF E2EG | F2FA G2D2 | E2EG F2FA | G4 G4 :|
% - - - - - - - - - - - - - - - - - - - - - - - - -
%%begintext align
%% 1st & 2d Cu. Right hands across round .|. Left hands back
%% again :|. lead down 1 Cu. cast off the 3d Cu. & lead up to
%% the top .|: :|: set 3 & 3 top & bottom .|:. then on the sides
%% :|:. lead out sides .|:: .|::
%%endtext
% - - - - - - - - - - - - - - - - - - - - - - - - -

%%sep 1 1 500
%%sep 1 1 500
